X: 547
T: Vallåtspolskan
O: Dalarna, Orsa
R: Polska
Z: Håkan Lidén, 2008-09-28
M: 9/8
L: 1/4
K: Dm
V:1
A ^c/ d e/ f a/ | a/g/ g a (4:6:4f//g//f//e// | ^c d e f e/ | g/f/ d ^c A3/2- |
A ^c/ d e/ f a/ | a/g/ g a (4:6:4f//g//f//e// | ^c d e f e/ | g/f d3 :|
|:[K:Gm] A B/A/ B/c/ d3/2- | d ^F/ G A/ B c/ | d/>e/ d c B A/ | c/B/ G ^F D3/2- |
D B/A/ B/c/ d c/ | B A/ (4:6:4G//^F//G//A// B c/ | d/>e/ d c B A/ | c/ B G3 :|
V:2
A A/- A ^c/ d f/ | f/e/ e f (4:6:4d//e//d//^c// | A F G A G/ | B/A/ F E ^C3/2- |
C A/- A ^c/ d f/ | f/e/ e f (4:6:4d//e//d//^c// | A F G A G/ | B/A F3 :|
|:[K:Gm] ^F G/F/ G/A/ B3/2- | B D/-D ^F/ G A/ | B/>c/ B A G ^F/ | A/G/ D C A,3/2- |
A, D/^F/ G/A/ B A/ | G D/ (4:6:4B,//A,//B,//D// G A/ | B/>c/ B A G D/ | E/ D B,3 :|
(:musicend:)
Här finns en [[!andrastämma]].
(:music:)
